img/icon-location.svg

<svg width="11" height="14" viewBox="0 0 11 14" fill="none" xmlns="http://www.w3.org/2000/svg">
<g clip-path="url(#clip0)">
<path fill-rule="evenodd" clip-rule="evenodd" d="M0.00860076 5.08997C0.206145 2.23805 2.6181 0 5.50001 0C8.38193 0 10.7939 2.23805 10.9914 5.09306C11.0659 6.40631 10.6535 7.70213 9.82847 8.74704L5.94768 13.783C5.89577 13.8504 5.82834 13.9051 5.75077 13.9427C5.67319 13.9804 5.5876 14 5.50081 14C5.41402 14 5.32844 13.9804 5.25086 13.9427C5.17328 13.9051 5.10585 13.8504 5.05395 13.783L1.17156 8.74396C0.346453 7.69911 -0.065986 6.40324 0.00860076 5.08997ZM5.50001 12.5491L8.93474 8.10077C9.60014 7.26234 9.93458 6.22148 9.87785 5.16555C9.73925 3.15733 8.0665 1.08432 5.50161 1.08432C2.93672 1.08432 1.26078 3.16504 1.12218 5.17018C1.06661 6.22454 1.40098 7.26357 2.06529 8.10077L5.50001 12.5491ZM4.16934 3.17643C4.56378 2.92351 5.02689 2.78964 5.49998 2.79177C6.13182 2.79463 6.73678 3.03964 7.18252 3.47322C7.62825 3.9068 7.87849 4.49365 7.87848 5.1054C7.87848 5.56345 7.73804 6.01119 7.47497 6.39189C7.21189 6.7726 6.83802 7.06913 6.40072 7.24392C5.96342 7.41871 5.48237 7.4639 5.01852 7.37374C4.55467 7.28359 4.1289 7.06217 3.79515 6.73752C3.4614 6.41287 3.23469 5.99962 3.14375 5.55011C3.05281 5.1006 3.10172 4.63507 3.2843 4.2125C3.46688 3.78994 3.7749 3.42935 4.16934 3.17643ZM4.78891 6.13664C4.99996 6.27092 5.24745 6.34147 5.49998 6.33933V6.34087C5.83634 6.33802 6.15789 6.20655 6.39454 5.97512C6.63119 5.74369 6.76375 5.43106 6.76331 5.1054C6.7633 4.86089 6.68827 4.6219 6.54772 4.41875C6.40718 4.21561 6.20747 4.05746 5.97394 3.9644C5.74041 3.87133 5.48359 3.84753 5.23606 3.89602C4.98854 3.94452 4.76148 4.06311 4.58369 4.23676C4.4059 4.41042 4.28541 4.63129 4.2375 4.87136C4.18959 5.11142 4.21642 5.35986 4.3146 5.58513C4.41277 5.81041 4.57786 6.00237 4.78891 6.13664Z"/>
</g>
</svg>

<svg width="16" height="21" viewBox="0 0 11 14" fill="none" xmlns="http://www.w3.org/2000/svg"><g clip-path="url(#clip0)"><path clip-rule="evenodd" d="M.009 5.09C.206 2.238 2.619 0 5.5 0c2.882 0 5.294 2.238 5.491 5.093a5.398 5.398 0 01-1.163 3.654l-3.88 5.036A.552.552 0 015.5 14a.572.572 0 01-.447-.217L1.172 8.744A5.397 5.397 0 01.009 5.09zM5.5 12.55L8.935 8.1c.665-.838 1-1.879.943-2.934-.139-2.009-1.812-4.082-4.376-4.082-2.565 0-4.241 2.081-4.38 4.086a4.343 4.343 0 00.943 2.93L5.5 12.55zM4.17 3.175a2.446 2.446 0 011.33-.384 2.43 2.43 0 011.683.681c.445.434.695 1.02.695 1.632 0 .458-.14.906-.403 1.287-.263.38-.637.677-1.074.852-.438.175-.919.22-1.382.13a2.415 2.415 0 01-1.224-.636 2.291 2.291 0 01-.651-1.188 2.247 2.247 0 01.14-1.337c.183-.423.49-.784.885-1.037zm.619 2.96c.211.135.458.205.711.203v.002c.336-.003.658-.134.895-.366a1.206 1.206 0 00.153-1.556 1.267 1.267 0 00-.574-.455 1.313 1.313 0 00-.738-.068 1.288 1.288 0 00-.652.34 1.222 1.222 0 00-.346.635c-.048.24-.022.489.077.714.098.225.263.417.474.552z"/></g></svg>
